svg/fluentui-system-icons/ic_fluent_people_team_toolbox_20_regular.svg

<svg width="20" height="20" viewBox="0 0 20 20" fill="none" xmlns="http://www.w3.org/2000/svg">
<path d="M8.5 4.5C8.5 3.67157 9.17157 3 10 3C10.8284 3 11.5 3.67157 11.5 4.5C11.5 5.32843 10.8284 6 10 6C9.17157 6 8.5 5.32843 8.5 4.5ZM10 2C8.61929 2 7.5 3.11929 7.5 4.5C7.5 5.88071 8.61929 7 10 7C11.3807 7 12.5 5.88071 12.5 4.5C12.5 3.11929 11.3807 2 10 2ZM14.5 5C14.5 4.44772 14.9477 4 15.5 4C16.0523 4 16.5 4.44772 16.5 5C16.5 5.55228 16.0523 6 15.5 6C14.9477 6 14.5 5.55228 14.5 5ZM15.5 3C14.3954 3 13.5 3.89543 13.5 5C13.5 6.10457 14.3954 7 15.5 7C16.6046 7 17.5 6.10457 17.5 5C17.5 3.89543 16.6046 3 15.5 3ZM4.5 4C3.94772 4 3.5 4.44772 3.5 5C3.5 5.55228 3.94772 6 4.5 6C5.05228 6 5.5 5.55228 5.5 5C5.5 4.44772 5.05228 4 4.5 4ZM2.5 5C2.5 3.89543 3.39543 3 4.5 3C5.60457 3 6.5 3.89543 6.5 5C6.5 6.10457 5.60457 7 4.5 7C3.39543 7 2.5 6.10457 2.5 5ZM5 15C5.03337 15 5.06655 14.9992 5.09952 14.9976C5.16813 15.3364 5.27099 15.6628 5.40434 15.973C5.27209 15.9908 5.13712 16 5 16C3.34315 16 2 14.6569 2 13V9.25C2 8.55964 2.55964 8 3.25 8H5.37889C5.18329 8.29221 5.05433 8.63279 5.01373 9H3.25C3.11193 9 3 9.11193 3 9.25V13C3 14.1046 3.89543 15 5 15ZM17 9.49982C17.4911 9.86866 17.8419 10.4141 17.9581 11.0419C17.9721 11.0445 17.9861 11.0472 18 11.05V9.25C18 8.55964 17.4404 8 16.75 8H14.6211C14.8167 8.29221 14.9457 8.63279 14.9863 9H16.75C16.8881 9 17 9.11193 17 9.25V9.49982ZM15.5 10H13.5C12.6716 10 12 10.6716 12 11.5V12H11.5C10.6716 12 10 12.6716 10 13.5V15H12V14.5C12 14.2239 12.2239 14 12.5 14C12.7761 14 13 14.2239 13 14.5V15H16V14.5C16 14.2239 16.2239 14 16.5 14C16.7761 14 17 14.2239 17 14.5V15H19V13.5C19 12.6716 18.3284 12 17.5 12H17V11.5C17 10.6716 16.3284 10 15.5 10ZM7.25 9C7.11193 9 7 9.11193 7 9.25V14C7 15.3062 7.83481 16.4175 9 16.8293V17.5C9 17.6296 9.00987 17.757 9.02889 17.8813C7.28903 17.4474 6 15.8742 6 14V9.25C6 8.55964 6.55964 8 7.25 8H12.75C13.3547 8 13.8592 8.42944 13.975 9H7.25ZM13 12V11.5C13 11.2239 13.2239 11 13.5 11H15.5C15.7761 11 16 11.2239 16 11.5V12H13ZM17 16V16.5C17 16.7761 16.7761 17 16.5 17C16.2239 17 16 16.7761 16 16.5V16H13V16.5C13 16.7761 12.7761 17 12.5 17C12.2239 17 12 16.7761 12 16.5V16H10V17.5C10 18.3284 10.6716 19 11.5 19H17.5C18.3284 19 19 18.3284 19 17.5V16H17Z" fill="#212121"/>
</svg>

<svg xmlns="http://www.w3.org/2000/svg" width="20" height="20"><path d="M8.5 4.5a1.5 1.5 0 1 1 3 0 1.5 1.5 0 0 1-3 0ZM10 2a2.5 2.5 0 1 0 0 5 2.5 2.5 0 0 0 0-5Zm4.5 3a1 1 0 1 1 2 0 1 1 0 0 1-2 0Zm1-2a2 2 0 1 0 0 4 2 2 0 0 0 0-4Zm-11 1a1 1 0 1 0 0 2 1 1 0 0 0 0-2Zm-2 1a2 2 0 1 1 4 0 2 2 0 0 1-4 0ZM5 15c.033 0 .067 0 .1-.002.068.338.171.665.304.975A3 3 0 0 1 2 13V9.25C2 8.56 2.56 8 3.25 8h2.129a2.237 2.237 0 0 0-.365 1H3.25a.25.25 0 0 0-.25.25V13a2 2 0 0 0 2 2Zm12-5.5a2.5 2.5 0 0 1 .958 1.542l.042.008v-1.8C18 8.56 17.44 8 16.75 8h-2.129c.196.292.325.633.365 1h1.764a.25.25 0 0 1 .25.25v.25Zm-1.5.5h-2a1.5 1.5 0 0 0-1.5 1.5v.5h-.5a1.5 1.5 0 0 0-1.5 1.5V15h2v-.5a.5.5 0 0 1 1 0v.5h3v-.5a.5.5 0 0 1 1 0v.5h2v-1.5a1.5 1.5 0 0 0-1.5-1.5H17v-.5a1.5 1.5 0 0 0-1.5-1.5ZM7.25 9a.25.25 0 0 0-.25.25V14c0 1.306.835 2.418 2 2.83v.67c0 .13.01.257.029.381A4.002 4.002 0 0 1 6 14V9.25C6 8.56 6.56 8 7.25 8h5.5c.605 0 1.11.43 1.225 1H7.25ZM13 12v-.5a.5.5 0 0 1 .5-.5h2a.5.5 0 0 1 .5.5v.5h-3Zm4 4v.5a.5.5 0 0 1-1 0V16h-3v.5a.5.5 0 0 1-1 0V16h-2v1.5a1.5 1.5 0 0 0 1.5 1.5h6a1.5 1.5 0 0 0 1.5-1.5V16h-2Z"/></svg>
